; generated by Slic3r 1.1.7 on 2015-01-08 at 06:23:50

; perimeters extrusion width = 0.40mm
; infill extrusion width = 0.67mm
; solid infill extrusion width = 0.67mm
; top infill extrusion width = 0.67mm

G21 ; set units to millimeters
M107
M104 S215 ; set temperature
G28

M109 S215 ; wait for temperature to be reached
G90 ; use absolute coordinates
G92 E0
M82 ; use absolute distances for extrusion
G1 F1800.000 E-1.00000
G92 E0
G1 Z0.300 F7800.000
G1 X40.701 Y40.701 F7800.000
G1 E1.00000 F1800.000
G1 X41.306 Y40.096 E1.05947 F942.340
G1 X42.683 Y39.039 E1.18009
G1 X44.166 Y38.183 E1.29902
G1 X45.770 Y37.519 E1.41964
G1 X47.423 Y37.076 E1.53857
G1 X49.144 Y36.849 E1.65920
G1 X50.944 Y36.861 E1.78428
G1 X52.584 Y37.076 E1.89916 F942.340
G1 X54.230 Y37.519 E2.01765
G1 X55.834 Y38.183 E2.13827
G1 X57.351 Y39.065 E2.26019
G1 X58.694 Y40.096 E2.37780
G1 X59.904 Y41.306 E2.49673
G1 X60.961 Y42.683 E2.61736
G1 X61.817 Y44.166 E2.73629
G1 X62.481 Y45.770 E2.85691
G1 X62.924 Y47.423 E2.97584
G1 X63.151 Y49.144 E3.09647
G1 X63.151 Y50.856 E3.21540
G1 X62.924 Y52.577 E3.33602
G1 X62.481 Y54.230 E3.45496
G1 X61.817 Y55.834 E3.57558
G1 X60.961 Y57.317 E3.69451
G1 X59.904 Y58.694 E3.81514
G1 X58.694 Y59.904 E3.93407
G1 X57.317 Y60.961 E4.05469
G1 X55.834 Y61.817 E4.17362
G1 X54.230 Y62.481 E4.29424
G1 X52.534 Y62.930 E4.41617
G1 X50.856 Y63.151 E4.53378
G1 X49.144 Y63.151 E4.65270
G1 X47.423 Y62.924 E4.77333
G1 X45.770 Y62.481 E4.89227
G1 X44.166 Y61.817 E5.01289
G1 X42.683 Y60.961 E5.13181
G1 X41.306 Y59.904 E5.25244
G1 X40.096 Y58.694 E5.37138
G1 X39.039 Y57.317 E5.49200
G1 X38.183 Y55.834 E5.61094
G1 X37.519 Y54.230 E5.73156
G1 X37.076 Y52.577 E5.85049
G1 X36.849 Y50.856 E5.97111
G1 X36.849 Y49.144 E6.09005
G1 X37.076 Y47.423 E6.21067
G1 X37.519 Y45.770 E6.32960
G1 X38.183 Y44.166 E6.45022
G1 X39.039 Y42.683 E6.56916
G1 X40.096 Y41.306 E6.68978
G1 X40.658 Y40.743 E6.74508
G1 F1800.000 E5.74508
G92 E0
G1 X53.694 Y53.694 F7800.000
G1 E1.00000 F1800.000
G1 X52.612 Y54.524 E1.09475 F600.000
G1 X51.352 Y55.046 E1.18950
G1 X50.000 Y55.224 E1.28425
G1 X48.648 Y55.046 E1.37899
G1 X47.388 Y54.524 E1.47374
G1 X46.306 Y53.694 E1.56849
G1 X45.476 Y52.612 E1.66324
G1 X44.954 Y51.352 E1.75799
G1 X44.776 Y50.000 E1.85274
G1 X44.954 Y48.648 E1.94749
G1 X45.476 Y47.388 E2.04224
G1 X46.306 Y46.306 E2.13698
G1 X47.388 Y45.476 E2.23173
G1 X48.648 Y44.954 E2.32648
G1 X50.000 Y44.776 E2.42123
G1 X51.352 Y44.954 E2.51598
G1 X52.612 Y45.476 E2.61073 F600.000
G1 X53.694 Y46.306 E2.70548
G1 X54.524 Y47.388 E2.80023
G1 X55.046 Y48.648 E2.89498
G1 X55.224 Y50.000 E2.98972
G1 X55.046 Y51.352 E3.08447
G1 X54.524 Y52.612 E3.17922
G1 X53.730 Y53.646 E3.26980
G1 X54.136 Y54.033 F7800.000
G1 X54.091 Y54.091 E3.27490 F600.000
G1 X52.893 Y55.010 E3.37984
G1 X51.497 Y55.588 E3.48478
G1 X50.000 Y55.786 E3.58972
G1 X48.503 Y55.588 E3.69466
G1 X47.107 Y55.010 E3.79960
G1 X45.909 Y54.091 E3.90454
G1 X44.990 Y52.893 E4.00948
G1 X44.412 Y51.497 E4.11442
G1 X44.214 Y50.000 E4.21936
G1 X44.412 Y48.503 E4.32430
G1 X44.990 Y47.107 E4.42924
G1 X45.909 Y45.909 E4.53418
G1 X47.107 Y44.990 E4.63912
G1 X48.503 Y44.412 E4.74406
G1 X48.597 Y44.399 E4.75070
G1 X50.000 Y44.214 E4.84900 F600.000
G1 X51.497 Y44.412 E4.95395
G1 X52.893 Y44.990 E5.05889
G1 X54.091 Y45.909 E5.16383
G1 X55.010 Y47.107 E5.26877
G1 X55.588 Y48.503 E5.37371
G1 X55.786 Y50.000 E5.47865
G1 X55.588 Y51.497 E5.58359
G1 X55.010 Y52.893 E5.68853
G1 X54.172 Y53.985 E5.78420
G1 X54.578 Y54.372 F7800.000
G1 X54.488 Y54.488 E5.79440 F600.000
G1 X53.174 Y55.497 E5.90953
G1 X51.643 Y56.131 E6.02466
G1 X50.000 Y56.347 E6.13979
G1 X48.357 Y56.131 E6.25492
G1 X46.826 Y55.497 E6.37006
G1 X45.512 Y54.488 E6.48519
G1 X44.503 Y53.174 E6.60032
G1 X43.869 Y51.643 E6.71545
G1 X43.653 Y50.000 E6.83059
G1 X43.869 Y48.357 E6.94572
G1 X44.503 Y46.826 E7.06085
G1 X45.512 Y45.512 E7.17598
G1 X46.826 Y44.503 E7.29111
G1 X48.357 Y43.869 E7.40625
G1 X50.000 Y43.653 E7.52138
G1 X50.049 Y43.659 E7.52483
G1 X51.643 Y43.869 E7.63651 F600.000
G1 X53.174 Y44.503 E7.75164
G1 X54.488 Y45.512 E7.86678
G1 X55.497 Y46.826 E7.98191
G1 X56.131 Y48.357 E8.09704
G1 X56.347 Y50.000 E8.21217
G1 X56.131 Y51.643 E8.32730
G1 X55.497 Y53.174 E8.44244
G1 X54.614 Y54.324 E8.54321
G1 X50.412 Y43.829 F7800.000
G1 X53.297 Y46.486 F7800.000
G1 X53.514 Y46.703 E8.56450 F942.340
G1 X54.611 Y48.601 F7800.000
G1 X51.399 Y45.390 E8.88003 F942.340
G1 X50.429 Y45.220 E8.94851
G1 X54.780 Y49.571 E9.37610
G1 X54.787 Y50.379 E9.43223
G1 X49.621 Y45.213 E9.93983
G1 X48.913 Y45.307 E9.98945
G1 X54.693 Y51.087 E10.55748
G1 X54.491 Y51.687 E10.60143
G1 X48.313 Y45.509 E11.20852
G1 X47.747 Y45.743 E11.25113
G1 X54.257 Y52.253 E11.89084
G1 X53.942 Y52.740 E11.93110
G1 X47.260 Y46.058 E12.58765
G1 X46.807 Y46.406 E12.62736
G1 X53.594 Y53.193 E13.29427
G1 X53.193 Y53.594 E13.33364
G1 X46.406 Y46.807 E14.00055
G1 X46.058 Y47.260 E14.04026
G1 X52.740 Y53.942 E14.69681
G1 X52.253 Y54.257 E14.73707
G1 X45.743 Y47.747 E15.37677
G1 X45.509 Y48.313 E15.41939
G1 X51.687 Y54.491 E16.02648
G1 X51.087 Y54.693 E16.07043
G1 X45.307 Y48.913 E16.63845
G1 X45.213 Y49.621 E16.68808
G1 X50.379 Y54.787 E17.19568
G1 X49.571 Y54.780 E17.25181
G1 X45.220 Y50.429 E17.67940
G1 X45.390 Y51.399 E17.74788
G1 X48.601 Y54.611 E18.06341
G1 X46.703 Y53.514 F7800.000
G1 X46.486 Y53.297 E18.08470 F942.340
M106 S255
M104 S210 ; set temperature
G1 F1800.000 E17.08470
G92 E0
G1 Z0.500 F7800.000
G1 X54.022 Y53.946 F7800.000
G1 E1.00000 F1800.000
G1 X53.989 Y53.989 E1.00181 F600.000
G1 X52.821 Y54.886 E1.05080
G1 X51.460 Y55.449 E1.09978
G1 X50.000 Y55.641 E1.14876
G1 X48.540 Y55.449 E1.19774
G1 X47.179 Y54.886 E1.24672
G1 X46.011 Y53.989 E1.29571
G1 X45.114 Y52.821 E1.34469
G1 X44.551 Y51.460 E1.39367
G1 X44.359 Y50.000 E1.44265
G1 X44.551 Y48.540 E1.49163
G1 X45.114 Y47.179 E1.54062
G1 X46.011 Y46.011 E1.58960
G1 X47.179 Y45.114 E1.63858
G1 X48.540 Y44.551 E1.68756
G1 X50.000 Y44.359 E1.73654
G1 X50.105 Y44.372 E1.74008
G1 X51.460 Y44.551 E1.78553 F600.000
G1 X52.821 Y45.114 E1.83451
G1 X53.989 Y46.011 E1.88349
G1 X54.886 Y47.179 E1.93247
G1 X55.449 Y48.540 E1.98145
G1 X55.641 Y50.000 E2.03044
G1 X55.449 Y51.460 E2.07942
G1 X54.886 Y52.821 E2.12840
G1 X54.059 Y53.898 E2.17357
G1 X54.340 Y54.189 F7800.000
G1 X54.274 Y54.274 E2.17714 F600.000
G1 X53.022 Y55.235 E2.22962
G1 X51.565 Y55.839 E2.28211
G1 X50.000 Y56.045 E2.33459
G1 X48.435 Y55.839 E2.38708
G1 X46.978 Y55.235 E2.43956
G1 X45.726 Y54.274 E2.49205
G1 X44.765 Y53.022 E2.54453
G1 X44.161 Y51.565 E2.59702
G1 X43.955 Y50.000 E2.64950
G1 X44.161 Y48.435 E2.70199
G1 X44.765 Y46.978 E2.75447
G1 X45.726 Y45.726 E2.80696
G1 X46.978 Y44.765 E2.85944
G1 X48.435 Y44.161 E2.91193
G1 X48.852 Y44.106 E2.92588
G1 X50.000 Y43.955 E2.96441 F600.000
G1 X51.565 Y44.161 E3.01690
G1 X53.022 Y44.765 E3.06938
G1 X54.274 Y45.726 E3.12187
G1 X55.235 Y46.978 E3.17435
G1 X55.839 Y48.435 E3.22684
G1 X56.045 Y50.000 E3.27932
G1 X55.839 Y51.565 E3.33181
G1 X55.235 Y53.022 E3.38429
G1 X54.376 Y54.142 E3.43122
G1 X54.657 Y54.433 F7800.000
G1 X54.560 Y54.560 E3.43653 F600.000
G1 X53.224 Y55.584 E3.49252
G1 X51.669 Y56.229 E3.54851
G1 X50.000 Y56.448 E3.60450
G1 X48.331 Y56.229 E3.66049
G1 X46.776 Y55.584 E3.71647
G1 X45.440 Y54.560 E3.77246
G1 X44.416 Y53.224 E3.82845
G1 X43.771 Y51.669 E3.88444
G1 X43.552 Y50.000 E3.94043
G1 X43.771 Y48.331 E3.99641
G1 X44.416 Y46.776 E4.05240
G1 X45.440 Y45.440 E4.10839
G1 X46.776 Y44.416 E4.16438
G1 X48.331 Y43.771 E4.22037
G1 X50.000 Y43.552 E4.27635
G1 X50.112 Y43.567 E4.28012
G1 X51.669 Y43.771 E4.33234 F600.000
G1 X53.224 Y44.416 E4.38833
G1 X54.560 Y45.440 E4.44432
G1 X55.584 Y46.776 E4.50031
G1 X56.229 Y48.331 E4.55629
G1 X56.448 Y50.000 E4.61228
G1 X56.229 Y51.669 E4.66827
G1 X55.584 Y53.224 E4.72426
G1 X54.693 Y54.385 E4.77293
G1 X50.474 Y43.737 F7800.000
G1 X48.551 Y44.894 F7800.000
G1 X44.894 Y48.551 E5.04315 F808.090
G1 X44.728 Y49.653 E5.10137
G1 X49.653 Y44.728 E5.46524
G1 X50.561 Y44.757 E5.51271
G1 X44.757 Y50.561 E5.94159
G1 X44.868 Y51.386 E5.98508
G1 X51.386 Y44.868 E6.46668
G1 X52.048 Y45.142 E6.50412
G1 X45.142 Y52.048 E7.01438
G1 X45.427 Y52.700 E7.05154
G1 X52.700 Y45.427 E7.58892
G1 X53.230 Y45.834 E7.62381
G1 X45.834 Y53.230 E8.17030
G1 X46.254 Y53.746 E8.20507
G1 X53.746 Y46.254 E8.75856
G1 X54.166 Y46.770 E8.79333
G1 X46.770 Y54.166 E9.33982
G1 X47.300 Y54.573 E9.37471
G1 X54.573 Y47.300 E9.91209
G1 X54.858 Y47.952 E9.94925
G1 X47.952 Y54.858 E10.45950
G1 X48.614 Y55.132 E10.49695
G1 X55.132 Y48.614 E10.97855
G1 X55.243 Y49.439 E11.02204
G1 X49.439 Y55.243 E11.45092
G1 X50.347 Y55.272 E11.49839
G1 X55.272 Y50.347 E11.86226
G1 X55.106 Y51.449 E11.92048
G1 X51.449 Y55.106 E12.19069
G1 X53.637 Y53.854 F7800.000
G1 X53.854 Y53.637 E12.20670 F808.090
G1 X46.363 Y46.146 F7800.000
G1 X46.146 Y46.363 E12.22271 F808.090
G1 F1800.000 E11.22271
G92 E0
G1 Z0.700 F7800.000
G1 X54.022 Y53.946 F7800.000
G1 E1.00000 F1800.000
G1 X53.989 Y53.989 E1.00181 F600.000
G1 X52.821 Y54.886 E1.05080
G1 X51.460 Y55.449 E1.09978
G1 X50.000 Y55.641 E1.14876
G1 X48.540 Y55.449 E1.19774
G1 X47.179 Y54.886 E1.24672
G1 X46.011 Y53.989 E1.29571
G1 X45.114 Y52.821 E1.34469
G1 X44.551 Y51.460 E1.39367
G1 X44.359 Y50.000 E1.44265
G1 X44.551 Y48.540 E1.49163
G1 X45.114 Y47.179 E1.54062
G1 X46.011 Y46.011 E1.58960
G1 X47.179 Y45.114 E1.63858
G1 X48.540 Y44.551 E1.68756
G1 X50.000 Y44.359 E1.73654
G1 X50.077 Y44.369 E1.73913
G1 X51.460 Y44.551 E1.78553 F600.000
G1 X52.821 Y45.114 E1.83451
G1 X53.989 Y46.011 E1.88349
G1 X54.886 Y47.179 E1.93247
G1 X55.449 Y48.540 E1.98145
G1 X55.641 Y50.000 E2.03044
G1 X55.449 Y51.460 E2.07942
G1 X54.886 Y52.821 E2.12840
G1 X54.059 Y53.898 E2.17357
G1 X54.340 Y54.189 F7800.000
G1 X54.274 Y54.274 E2.17714 F600.000
G1 X53.022 Y55.235 E2.22962
G1 X51.565 Y55.839 E2.28211
G1 X50.087 Y56.033 E2.33167
G1 X50.087 Y56.056 E2.33243
G1 X48.435 Y55.839 E2.38784
G1 X46.978 Y55.235 E2.44032
G1 X45.726 Y54.274 E2.49281
G1 X44.765 Y53.022 E2.54529
G1 X44.161 Y51.565 E2.59778
G1 X43.955 Y50.000 E2.65027
G1 X44.161 Y48.435 E2.70275
G1 X44.765 Y46.978 E2.75523
G1 X45.726 Y45.726 E2.80772
G1 X46.978 Y44.765 E2.86020
G1 X48.435 Y44.161 E2.91269
G1 X49.364 Y44.039 E2.94385
G1 X50.000 Y43.955 E2.96518 F600.000
G1 X51.565 Y44.161 E3.01766
G1 X53.022 Y44.765 E3.07015
G1 X54.274 Y45.726 E3.12263
G1 X55.235 Y46.978 E3.17512
G1 X55.839 Y48.435 E3.22760
G1 X56.045 Y50.000 E3.28009
G1 X55.839 Y51.565 E3.33257
G1 X55.235 Y53.022 E3.38506
G1 X54.376 Y54.142 E3.43198
G1 X54.657 Y54.433 F7800.000
G1 X54.560 Y54.560 E3.43730 F600.000
G1 X53.224 Y55.584 E3.49328
G1 X51.669 Y56.229 E3.54927
G1 X50.000 Y56.448 E3.60526
G1 X48.331 Y56.229 E3.66125
G1 X46.776 Y55.584 E3.71724
G1 X45.440 Y54.560 E3.77322
G1 X44.416 Y53.224 E3.82921
G1 X43.771 Y51.669 E3.88520
G1 X43.552 Y50.000 E3.94119
G1 X43.771 Y48.331 E3.99718
G1 X44.416 Y46.776 E4.05316
G1 X45.440 Y45.440 E4.10915
G1 X46.776 Y44.416 E4.16514
G1 X48.331 Y43.771 E4.22113
G1 X50.000 Y43.552 E4.27712
G1 X50.181 Y43.576 E4.28320
G1 X51.669 Y43.771 E4.33310 F600.000
G1 X53.224 Y44.416 E4.38909
G1 X54.560 Y45.440 E4.44508
G1 X55.584 Y46.776 E4.50107
G1 X56.229 Y48.331 E4.55706
G1 X56.448 Y50.000 E4.61304
G1 X56.229 Y51.669 E4.66903
G1 X55.584 Y53.224 E4.72502
G1 X54.693 Y54.385 E4.77370
G1 X50.543 Y43.746 F7800.000
G1 X53.637 Y46.146 F7800.000
G1 X53.854 Y46.363 E4.78971 F808.129
G1 X55.106 Y48.551 F7800.000
G1 X51.449 Y44.894 E5.05992 F808.129
G1 X50.347 Y44.728 E5.11814
G1 X55.272 Y49.653 E5.48201
G1 X55.243 Y50.561 E5.52948
G1 X49.439 Y44.757 E5.95836
G1 X48.614 Y44.868 E6.00186
G1 X55.132 Y51.386 E6.48345
G1 X54.858 Y52.048 E6.52090
G1 X47.952 Y45.142 E7.03115
G1 X47.300 Y45.427 E7.06831
G1 X54.573 Y52.700 E7.60569
G1 X54.166 Y53.230 E7.64058
G1 X46.770 Y45.834 E8.18707
G1 X46.254 Y46.254 E8.22184
G1 X53.742 Y53.742 E8.77506
G1 X53.226 Y54.163 E8.80983
G1 X45.834 Y46.770 E9.35603
G1 X45.427 Y47.300 E9.39092
G1 X52.700 Y54.572 E9.92826
G1 X52.048 Y54.858 E9.96541
G1 X45.146 Y47.955 E10.47538
G1 X44.876 Y48.622 E10.51293
G1 X51.386 Y55.132 E10.99395
G1 X50.561 Y55.243 E11.03744
G1 X44.757 Y49.439 E11.46633
G1 X44.728 Y50.347 E11.51380
G1 X49.653 Y55.272 E11.87767
G1 X48.551 Y55.106 E11.93589
G1 X44.894 Y51.449 E12.20610
G1 X46.146 Y53.637 F7800.000
G1 X46.363 Y53.854 E12.22211 F808.129
G1 F1800.000 E11.22211
G92 E0
G1 Z0.900 F7800.000
G1 X54.022 Y53.946 F7800.000
G1 E1.00000 F1800.000
G1 X53.989 Y53.989 E1.00181 F600.000
G1 X52.821 Y54.886 E1.05080
G1 X51.460 Y55.449 E1.09978
G1 X50.000 Y55.641 E1.14876
G1 X48.540 Y55.449 E1.19774
G1 X47.179 Y54.886 E1.24672
G1 X46.011 Y53.989 E1.29571
G1 X45.114 Y52.821 E1.34469
G1 X44.551 Y51.460 E1.39367
G1 X44.359 Y50.000 E1.44265
G1 X44.551 Y48.540 E1.49163
G1 X45.114 Y47.179 E1.54062
G1 X46.011 Y46.011 E1.58960
G1 X47.179 Y45.114 E1.63858
G1 X48.540 Y44.551 E1.68756
G1 X50.000 Y44.359 E1.73654
G1 X50.146 Y44.378 E1.74145
G1 X51.460 Y44.551 E1.78553 F600.000
G1 X52.821 Y45.114 E1.83451
G1 X53.989 Y46.011 E1.88349
G1 X54.886 Y47.179 E1.93247
G1 X55.449 Y48.540 E1.98145
G1 X55.641 Y50.000 E2.03044
G1 X55.449 Y51.460 E2.07942
G1 X54.886 Y52.821 E2.12840
G1 X54.059 Y53.898 E2.17357
G1 X54.340 Y54.189 F7800.000
G1 X54.274 Y54.274 E2.17714 F600.000
G1 X53.022 Y55.235 E2.22962
G1 X51.565 Y55.839 E2.28211
G1 X50.000 Y56.045 E2.33459
G1 X48.435 Y55.839 E2.38708
G1 X46.978 Y55.235 E2.43956
G1 X45.726 Y54.274 E2.49205
G1 X44.765 Y53.022 E2.54453
G1 X44.161 Y51.565 E2.59702
G1 X43.955 Y50.000 E2.64950
G1 X44.161 Y48.435 E2.70199
G1 X44.765 Y46.978 E2.75447
G1 X45.726 Y45.726 E2.80696
G1 X46.978 Y44.765 E2.85944
G1 X48.435 Y44.161 E2.91193
G1 X49.459 Y44.026 E2.94625
G1 X50.000 Y43.955 E2.96441 F600.000
G1 X51.565 Y44.161 E3.01690
G1 X53.022 Y44.765 E3.06938
G1 X54.274 Y45.726 E3.12187
G1 X55.235 Y46.978 E3.17435
G1 X55.839 Y48.435 E3.22684
G1 X56.045 Y50.000 E3.27932
G1 X55.839 Y51.565 E3.33181
G1 X55.235 Y53.022 E3.38429
G1 X54.376 Y54.142 E3.43122
G1 X54.657 Y54.433 F7800.000
G1 X54.560 Y54.560 E3.43653 F600.000
G1 X53.224 Y55.584 E3.49252
G1 X51.669 Y56.229 E3.54851
G1 X50.000 Y56.448 E3.60450
G1 X48.331 Y56.229 E3.66049
G1 X46.776 Y55.584 E3.71647
G1 X45.440 Y54.560 E3.77246
G1 X44.416 Y53.224 E3.82845
G1 X43.771 Y51.669 E3.88444
G1 X43.552 Y50.000 E3.94043
G1 X43.771 Y48.331 E3.99641
G1 X44.416 Y46.776 E4.05240
G1 X45.440 Y45.440 E4.10839
G1 X46.776 Y44.416 E4.16438
G1 X48.331 Y43.771 E4.22037
G1 X50.000 Y43.552 E4.27635
G1 X50.251 Y43.585 E4.28476
G1 X51.669 Y43.771 E4.33234 F600.000
G1 X53.224 Y44.416 E4.38833
G1 X54.560 Y45.440 E4.44432
G1 X55.584 Y46.776 E4.50031
G1 X56.229 Y48.331 E4.55629
G1 X56.448 Y50.000 E4.61228
G1 X56.229 Y51.669 E4.66827
G1 X55.584 Y53.224 E4.72426
G1 X54.693 Y54.385 E4.77293
G1 X50.612 Y43.756 F7800.000
G1 X48.550 Y44.894 F7800.000
G1 X44.912 Y48.533 E5.04176 F808.159
G1 X44.729 Y49.652 E5.10102
G1 X49.652 Y44.729 E5.46480
G1 X50.560 Y44.756 E5.51226
G1 X44.756 Y50.560 E5.94106
G1 X44.868 Y51.385 E5.98455
G1 X51.385 Y44.868 E6.46609
G1 X52.047 Y45.142 E6.50351
G1 X45.142 Y52.047 E7.01370
G1 X45.426 Y52.699 E7.05085
G1 X52.699 Y45.426 E7.58820
G1 X53.228 Y45.832 E7.62307
G1 X45.832 Y53.228 E8.16953
G1 X46.253 Y53.744 E8.20429
G1 X53.744 Y46.253 E8.75778
G1 X54.165 Y46.768 E8.79253
G1 X46.768 Y54.165 E9.33906
G1 X47.297 Y54.571 E9.37393
G1 X54.571 Y47.297 E9.91136
G1 X54.856 Y47.948 E9.94848
G1 X47.948 Y54.856 E10.45889
G1 X48.610 Y55.130 E10.49632
G1 X55.130 Y48.610 E10.97809
G1 X55.243 Y49.433 E11.02151
G1 X49.433 Y55.243 E11.45074
G1 X50.339 Y55.273 E11.49810
G1 X55.273 Y50.339 E11.86260
G1 X55.111 Y51.437 E11.92056
G1 X51.437 Y55.111 E12.19204
G1 X53.656 Y53.828 F7800.000
G1 X53.879 Y53.605 E12.20851 F808.159
G1 X46.363 Y46.146 F7800.000
G1 X46.146 Y46.363 E12.22452 F808.159
G1 F1800.000 E11.22452
G92 E0
G1 Z1.100 F7800.000
G1 X54.022 Y53.946 F7800.000
G1 E1.00000 F1800.000
G1 X53.989 Y53.989 E1.00181 F600.000
G1 X52.821 Y54.886 E1.05080
G1 X51.460 Y55.449 E1.09978
G1 X50.000 Y55.641 E1.14876
G1 X48.540 Y55.449 E1.19774
G1 X47.179 Y54.886 E1.24672
G1 X46.011 Y53.989 E1.29571
G1 X45.114 Y52.821 E1.34469
G1 X44.551 Y51.460 E1.39367
